img/svg/software-licenses/navig/kaspersk.svg

<svg width="24" height="24" viewBox="0 0 24 24" fill="none" xmlns="http://www.w3.org/2000/svg">
<path d="M19.312 13.1716C19.312 17.5995 16.2125 19.8135 12.5284 21.0976C12.3355 21.163 12.1259 21.1599 11.9351 21.0888C8.24214 19.8135 5.14258 17.5995 5.14258 13.1716V6.97245C5.14258 6.73757 5.23588 6.51232 5.40196 6.34624C5.56804 6.18016 5.7933 6.08686 6.02817 6.08686C7.79935 6.08686 10.0133 5.02415 11.5543 3.67805C11.7419 3.51776 11.9805 3.42969 12.2273 3.42969C12.4741 3.42969 12.7127 3.51776 12.9003 3.67805C14.4501 5.033 16.6553 6.08686 18.4264 6.08686C18.6613 6.08686 18.8866 6.18016 19.0526 6.34624C19.2187 6.51232 19.312 6.73757 19.312 6.97245V13.1716Z" stroke="#030303" stroke-width="1.5" stroke-linecap="round" stroke-linejoin="round"/>
<path d="M8.68555 12.2852H8.6944" stroke="#030303" stroke-width="1.7" stroke-linecap="round" stroke-linejoin="round"/>
<path d="M12.2266 12.2852H12.2354" stroke="#030303" stroke-width="1.7" stroke-linecap="round" stroke-linejoin="round"/>
<path d="M15.7695 12.2852H15.7784" stroke="#030303" stroke-width="1.7" stroke-linecap="round" stroke-linejoin="round"/>
</svg>

<svg width="24" height="24" fill="none" xmlns="http://www.w3.org/2000/svg"><path d="M19.312 13.172c0 4.427-3.1 6.642-6.784 7.926a.885.885 0 01-.593-.01c-3.693-1.274-6.792-3.489-6.792-7.916v-6.2a.886.886 0 01.885-.885c1.771 0 3.985-1.063 5.526-2.409a1.036 1.036 0 011.346 0c1.55 1.355 3.755 2.409 5.526 2.409a.885.885 0 01.886.885v6.2z" stroke="#030303" stroke-width="1.5" stroke-linecap="round" stroke-linejoin="round"/><path d="M8.686 12.285h.008m3.533 0h.008m3.535 0h.008" stroke="#030303" stroke-width="1.7" stroke-linecap="round" stroke-linejoin="round"/></svg>
